Font-Source/Funky/Math/integral-wider-a.svg

<?xml version="1.0" encoding="UTF-8" standalone="no"?>
<!-- Created with Inkscape (http://www.inkscape.org/) -->

<svg
   width="397"
   height="1000"
   viewBox="0 0 397 1000"
   version="1.1"
   id="svg1"
   inkscape:version="1.3.2 (091e20e, 2023-11-25, custom)"
   sodipodi:docname="integral-wider-a.svg"
   xmlns:inkscape="http://www.inkscape.org/namespaces/inkscape"
   xmlns:sodipodi="http://sodipodi.sourceforge.net/DTD/sodipodi-0.dtd"
   xmlns="http://www.w3.org/2000/svg"
   xmlns:svg="http://www.w3.org/2000/svg">
  <sodipodi:namedview
     id="namedview1"
     pagecolor="#ffffff"
     bordercolor="#666666"
     borderopacity="1.0"
     inkscape:showpageshadow="2"
     inkscape:pageopacity="0.0"
     inkscape:pagecheckerboard="0"
     inkscape:deskcolor="#d1d1d1"
     inkscape:document-units="px"
     inkscape:zoom="0.98394783"
     inkscape:cx="326.74497"
     inkscape:cy="802.37994"
     inkscape:window-width="1680"
     inkscape:window-height="998"
     inkscape:window-x="-8"
     inkscape:window-y="-8"
     inkscape:window-maximized="1"
     inkscape:current-layer="layer1"
     showguides="true">
    <sodipodi:guide
       position="15,-30"
       orientation="1,0"
       id="guide1"
       inkscape:locked="false" />
    <sodipodi:guide
       position="385,1076"
       orientation="1,0"
       id="guide2"
       inkscape:locked="false" />
    <sodipodi:guide
       position="407.28786,1085.3704"
       orientation="0,-1"
       id="guide3"
       inkscape:locked="false" />
    <sodipodi:guide
       position="83,-40"
       orientation="0,-1"
       id="guide4"
       inkscape:locked="false" />
    <sodipodi:guide
       position="267.99729,522.5"
       orientation="1,0"
       id="guide5"
       inkscape:locked="false" />
    <sodipodi:guide
       position="407.28786,1015.3704"
       orientation="0,1"
       id="guide8"
       inkscape:label=""
       inkscape:locked="false"
       inkscape:color="rgb(0,134,229)" />
    <sodipodi:guide
       position="514.86806,1068.2544"
       orientation="1,0"
       id="guide9"
       inkscape:locked="false" />
    <sodipodi:guide
       position="212.99729,522.5"
       orientation="-1,0"
       id="guide10"
       inkscape:label=""
       inkscape:locked="false"
       inkscape:color="rgb(0,134,229)" />
    <sodipodi:guide
       position="322.99729,522.5"
       orientation="-1,0"
       id="guide11"
       inkscape:label=""
       inkscape:locked="false"
       inkscape:color="rgb(0,134,229)" />
    <sodipodi:guide
       position="24.171178,-22.747"
       orientation="1,0"
       id="guide12"
       inkscape:locked="false" />
    <sodipodi:guide
       position="267.99729,522.5"
       orientation="0,-1"
       id="guide13"
       inkscape:locked="false" />
  </sodipodi:namedview>
  <defs
     id="defs1" />
  <g
     inkscape:label="Layer 1"
     inkscape:groupmode="layer"
     id="layer1">
    <path
       style="opacity:0.748031;fill:#000000;stroke:none;stroke-width:1px;stroke-linecap:butt;stroke-linejoin:miter;stroke-opacity:1"
       d="m 322.99729,477.5 c 0,-116.02705 -6.46778,-314.30547 13.35617,-408.744927 14.90497,-71.0058816 51.16262,-84.125473 75.93162,-84.125473 21.34557,0 41.13504,17.6198143 41.13504,47.589614 31.13126,0 61.44794,-16.961322 61.44794,-53.76694 C 514.86806,-62.145932 487.99462,-85 446.52412,-85 391.1984,-85 342.08124,-68.556909 305.00043,-15.3704 241.53772,75.656722 212.99729,282.06589 212.99729,477.5 Z"
       id="path7"
       sodipodi:nodetypes="csscssscc"
       inkscape:transform-center-y="-281.25"
       inkscape:transform-center-x="-30.068147" />
    <path
       style="opacity:0.748031;fill:#000000;stroke:none;stroke-width:1px;stroke-linecap:butt;stroke-linejoin:miter;stroke-opacity:1"
       d="m 212.99727,477.50002 c 0,116.02705 6.46778,314.30547 -13.35617,408.74493 -14.90497,71.00588 -51.16262,84.12547 -75.93162,84.12547 -21.34557,0 -41.13504,-17.61981 -41.13504,-47.58961 -31.13126,0 -61.44794,16.96132 -61.44794,53.76694 0,40.59825 26.87344,63.45225 68.34394,63.45225 55.32572,0 104.44288,-16.4431 141.52369,-69.62958 63.46271,-91.02712 92.00314,-297.43629 92.00314,-492.8704 z"
       id="use8"
       sodipodi:nodetypes="csscssscc"
       inkscape:transform-center-y="-281.25"
       inkscape:transform-center-x="-30.068147" />
  </g>
</svg>

<?xml version="1.0" encoding="UTF-8" standalone="no"?>
<!-- Created with Inkscape (http://www.inkscape.org/) -->

<svg
   width="397"
   height="1000"
   viewBox="0 0 397 1000"
   version="1.1"
   id="svg1"
   inkscape:version="1.3.2 (091e20e, 2023-11-25, custom)"
   sodipodi:docname="integral-wider-a.svg"
   xmlns:inkscape="http://www.inkscape.org/namespaces/inkscape"
   xmlns:sodipodi="http://sodipodi.sourceforge.net/DTD/sodipodi-0.dtd"
   xmlns="http://www.w3.org/2000/svg"
   xmlns:svg="http://www.w3.org/2000/svg">
  <sodipodi:namedview
     id="namedview1"
     pagecolor="#ffffff"
     bordercolor="#666666"
     borderopacity="1.0"
     inkscape:showpageshadow="2"
     inkscape:pageopacity="0.0"
     inkscape:pagecheckerboard="0"
     inkscape:deskcolor="#d1d1d1"
     inkscape:document-units="px"
     inkscape:zoom="0.98394783"
     inkscape:cx="347.07125"
     inkscape:cy="234.26039"
     inkscape:window-width="1680"
     inkscape:window-height="998"
     inkscape:window-x="-8"
     inkscape:window-y="-8"
     inkscape:window-maximized="1"
     inkscape:current-layer="layer1"
     showguides="true">
    <sodipodi:guide
       position="15,-30"
       orientation="1,0"
       id="guide1"
       inkscape:locked="false" />
    <sodipodi:guide
       position="385,1076"
       orientation="1,0"
       id="guide2"
       inkscape:locked="false" />
    <sodipodi:guide
       position="407.28786,1085.3704"
       orientation="0,-1"
       id="guide3"
       inkscape:locked="false" />
    <sodipodi:guide
       position="83,-40"
       orientation="0,-1"
       id="guide4"
       inkscape:locked="false" />
    <sodipodi:guide
       position="267.99729,522.5"
       orientation="1,0"
       id="guide5"
       inkscape:locked="false" />
    <sodipodi:guide
       position="407.28786,1015.3704"
       orientation="0,1"
       id="guide8"
       inkscape:label=""
       inkscape:locked="false"
       inkscape:color="rgb(0,134,229)" />
    <sodipodi:guide
       position="514.86806,1068.2544"
       orientation="1,0"
       id="guide9"
       inkscape:locked="false" />
    <sodipodi:guide
       position="212.99729,522.5"
       orientation="-1,0"
       id="guide10"
       inkscape:label=""
       inkscape:locked="false"
       inkscape:color="rgb(0,134,229)" />
    <sodipodi:guide
       position="322.99729,522.5"
       orientation="-1,0"
       id="guide11"
       inkscape:label=""
       inkscape:locked="false"
       inkscape:color="rgb(0,134,229)" />
    <sodipodi:guide
       position="24.171178,-22.747"
       orientation="1,0"
       id="guide12"
       inkscape:locked="false" />
    <sodipodi:guide
       position="267.99729,522.5"
       orientation="0,-1"
       id="guide13"
       inkscape:locked="false" />
  </sodipodi:namedview>
  <defs
     id="defs1" />
  <g
     inkscape:label="Layer 1"
     inkscape:groupmode="layer"
     id="layer1">
    <path
       id="path7"
       style="opacity:0.748031;fill:#000000;stroke:none;stroke-width:1px;stroke-linecap:butt;stroke-linejoin:miter;stroke-opacity:1"
       inkscape:transform-center-x="-30.068147"
       inkscape:transform-center-y="-281.25"
       d="M 426.45117 -85.371094 C 381.03457 -85.371094 339.60611 -65.008036 305 -15.371094 C 241.53736 75.655942 212.99805 282.06609 212.99805 477.5 C 212.99805 593.52693 219.46456 791.80478 199.64062 886.24414 C 184.73567 957.24995 148.47796 970.37109 123.70898 970.37109 C 102.36344 970.37109 82.574219 952.75102 82.574219 922.78125 C 51.44299 922.78125 21.126953 939.74129 21.126953 976.54688 C 21.126953 1017.1451 63.753175 1040.3711 109.54297 1040.3711 C 154.95957 1040.3711 196.38804 1020.008 230.99414 970.37109 C 294.45678 879.34405 322.99805 672.93391 322.99805 477.5 C 322.99805 361.47307 316.52959 163.19522 336.35352 68.755859 C 351.25847 -2.2499512 387.51618 -15.371094 412.28516 -15.371094 C 433.6307 -15.371094 453.41992 2.2489803 453.41992 32.21875 C 484.55115 32.21875 514.86719 15.258706 514.86719 -21.546875 C 514.86719 -62.14504 472.24097 -85.371094 426.45117 -85.371094 z " />
  </g>
</svg>
